X: 38577
T: Stolen Purse, The
R: jig
M: 6/8
K: Adorian
edB AGA|AGF GBd|edB ABd|e/g/e d efg|
edB AGA|AGF G2A|GED G2A|1 Bdd edg:|2 Bdd edB||
def ~g3|agf ~g2e|def gfg|age edB|
def ~g3|agf ~g2a|bag agf|e/g/e d efg:|

